X:362
T:Polka du Biros
R:polka
C:trad.
A:Arige
O:France
Z:S. Piron
M:2/4
L:1/8
Q:1/4=160
K:G
DG|:GF/2E/2 DB|BA/2B/2 cA|AG/2A/2 BG|G z DG:|
|:BA/2B/2 AG|E2 GF/2E/2|DF AB|AG DG|BA/2B/2 AG|E2 GF/2E/2|DF AF|G z DG:||
